icons/armor/chest_armor.svg

<svg xmlns="http://www.w3.org/2000/svg" xmlns:xlink="http://www.w3.org/1999/xlink" width="128pt" height="156pt" viewBox="0 0 128 156" version="1.1">
<g id="surface1">
<path d="M 59.699219 40.039062 L 58.394531 39.78125 C 52.140625 38.738281 46.75 35.964844 42.234375 31.460938 C 38.929688 27.992188 36.585938 24.179688 35.195312 20.019531 C 34.847656 19.152344 34.066406 19.671875 32.847656 21.578125 L 31.285156 26 C 33.023438 33.28125 33.628906 41.601562 33.109375 50.960938 C 32.238281 62.746094 29.460938 71.847656 24.765625 78.261719 L 18.511719 84.761719 C 17.816406 85.453125 17.035156 90.21875 16.164062 99.058594 L 15.382812 112.058594 C 25.984375 115.699219 33.195312 118.90625 37.019531 121.679688 C 39.972656 123.585938 43.101562 127.3125 46.402344 132.859375 L 52.398438 140.660156 C 54.660156 142.566406 57.613281 143.691406 61.261719 144.039062 L 63.609375 144.039062 L 63.609375 40.300781 L 62.304688 40.300781 L 61.261719 40.039062 L 59.699219 40.039062 M 126.695312 7.019531 L 123.304688 13.519531 C 120.003906 18.199219 115.660156 21.925781 110.269531 24.699219 C 108.1875 25.566406 107.054688 31.894531 106.882812 43.679688 C 106.707031 56.332031 108.707031 65.433594 112.878906 70.980469 C 116.527344 75.832031 120.175781 78.519531 123.828125 79.039062 L 127.996094 78.519531 L 123.828125 120.898438 C 111.3125 124.714844 102.625 128.265625 97.757812 131.558594 L 88.113281 144.820312 C 83.074219 151.578125 76.207031 155.308594 67.519531 156 L 60.480469 156 C 51.792969 155.308594 44.925781 151.578125 39.886719 144.820312 C 35.890625 137.539062 32.675781 133.121094 30.242188 131.558594 C 27.285156 129.480469 22.074219 127.054688 14.601562 124.28125 L 4.171875 120.898438 L 0.00390625 78.519531 L 2.609375 79.300781 C 6.433594 79.300781 10.601562 76.527344 15.121094 70.980469 C 19.292969 65.433594 21.292969 56.332031 21.117188 43.679688 C 20.945312 31.894531 19.8125 25.566406 17.730469 24.699219 C 12.339844 21.925781 7.996094 18.199219 4.695312 13.519531 L 1.304688 7.019531 L 41.972656 0 C 45.96875 3.292969 47.535156 8.753906 46.664062 16.378906 L 49.53125 21.578125 C 52.3125 25.21875 55.960938 27.386719 60.480469 28.078125 L 62.042969 28.078125 L 62.828125 28.339844 L 65.171875 28.339844 L 65.957031 28.078125 L 67.519531 28.078125 C 72.039062 27.386719 75.6875 25.21875 78.46875 21.578125 L 81.335938 16.378906 L 81.335938 10.140625 C 82.03125 5.460938 83.59375 2.078125 86.027344 0 L 126.695312 7.019531 "/>
</g>
</svg>

<svg xmlns="http://www.w3.org/2000/svg" width="128pt" height="208" viewBox="0 0 128 156"><path d="m59.7 40.04-1.305-.259c-6.254-1.043-11.645-3.816-16.16-8.32q-4.956-5.202-7.04-11.441-.52-1.301-2.347 1.558L31.285 26q2.606 10.922 1.824 24.96c-.87 11.786-3.648 20.888-8.343 27.302l-6.254 6.5q-1.043 1.037-2.348 14.297l-.781 13q15.9 5.46 21.637 9.62 4.43 2.86 9.382 11.18l5.996 7.801q3.392 2.858 8.864 3.38h2.347V40.3h-1.304l-1.043-.26zm66.996-33.02-3.39 6.5q-4.95 7.02-13.035 11.18c-2.082.866-3.215 7.195-3.387 18.98q-.263 18.98 5.996 27.3 5.471 7.279 10.95 8.06l4.167-.52-4.168 42.378c-12.516 3.817-21.203 7.368-26.07 10.66l-9.645 13.262C83.074 151.578 76.207 155.31 67.52 156h-7.04c-8.687-.691-15.554-4.422-20.593-11.18q-5.994-10.919-9.645-13.261-4.434-3.118-15.64-7.278l-10.43-3.383L.004 78.52l2.605.78c3.825 0 7.993-2.773 12.512-8.32q6.259-8.32 5.996-27.3c-.172-11.785-1.305-18.114-3.387-18.98Q9.646 20.54 4.695 13.52l-3.39-6.5L41.973 0q5.996 4.94 4.691 16.379l2.867 5.2q4.171 5.461 10.95 6.5h1.562l.785.26h2.344l.785-.26h1.563q6.779-1.039 10.949-6.5l2.867-5.2V10.14C82.03 5.46 83.594 2.078 86.027 0z"/></svg>
